X: 1
T: Mrs Margaret Holmes' Strathspey
C: Ian Holmes
R: strathspey
Z: 2014 John Chambers <jc:trillian.mit.edu>
S: PDF image of set for Monymusk from George Meikle 2012
M: C
L: 1/8
K: G
"D7"D2 |\
"G"G2 B>A "G7"G<D D>G | "C"E>G c>E "G"E<D D>G |\
"C"E>G c>E "G"D>G B>G | "A7"A>^c e>g "D7"(3fed (3=cBA |
"G"G2 B>A "G7"G<D D>G | "C"E>G c>E "G"E<D D>G |\
"C"E>G c>e "G"d>b "A7"a>g | "D7"(3fed (3cBA "G"G2 G> |]
d |\
"Em"e<B "B7"G>A "Em"B<G G>B | "B7"A<F F>B "Em"G<E "A7"E>^c |\
"D"d<A "A7"A>G "Bm"F<D D>F | "A7"(3EFG F>E "D7"D2 D2 |
"G"G2 B>A "G7"G<D D>G | "C"E>G c>E "G"E<D D>G |\
"C"E>G c>e "G"d>b "A7"a>g | "D7"(3fed (3cBA "G"G2 |]
